X: 2
T: The Reel Of Rio
R: reel
M: 4/4
L: 1/8
K: Gmaj
DEGA BABd|eg~g2 agef|gede gedB|cABA GE~E2|DEGA BABd|eg~g2 agef|gede gedB|1 cABA G3E:|2 cABA G2 Bc||dg~g2 ag~g2|bgag edBd|eBBA GABd|gedB ABGE|DEGA BABd|eg~g2 agef|gede gedB|1 cABA G2Bc:|2 cABA G3E||


Tune 575	Setting 13560

